chart-timeline-variant.svg

<svg fill="currentColor" viewBox="0 0 24 24"><path d="m3 14 .5.07L8.07 9.5a1.95 1.95 0 0 1 .52-1.91c.78-.79 2.04-.79 2.82 0 .53.52.7 1.26.52 1.91l2.57 2.57.5-.07c.18 0 .35 0 .5.07l3.57-3.57C19 8.35 19 8.18 19 8a2 2 0 0 1 2-2 2 2 0 0 1 2 2 2 2 0 0 1-2 2c-.18 0-.35 0-.5-.07l-3.57 3.57c.07.15.07.32.07.5a2 2 0 0 1-2 2 2 2 0 0 1-2-2l.07-.5-2.57-2.57c-.32.07-.68.07-1 0L4.93 15.5 5 16a2 2 0 0 1-2 2 2 2 0 0 1-2-2 2 2 0 0 1 2-2"/></svg>

<svg  viewBox="0 0 24 24" fill="currentColor"><path  d="M3,14L3.5,14.07L8.07,9.5C7.89,8.85 8.06,8.11 8.59,7.59C9.37,6.8 10.63,6.8 11.41,7.59C11.94,8.11 12.11,8.85 11.93,9.5L14.5,12.07L15,12C15.18,12 15.35,12 15.5,12.07L19.07,8.5C19,8.35 19,8.18 19,8A2,2 0 0,1 21,6A2,2 0 0,1 23,8A2,2 0 0,1 21,10C20.82,10 20.65,10 20.5,9.93L16.93,13.5C17,13.65 17,13.82 17,14A2,2 0 0,1 15,16A2,2 0 0,1 13,14L13.07,13.5L10.5,10.93C10.18,11 9.82,11 9.5,10.93L4.93,15.5L5,16A2,2 0 0,1 3,18A2,2 0 0,1 1,16A2,2 0 0,1 3,14Z"/></svg>
